X:1
T:Magnificat (Short Service) - Byrd
T:#
%%score [ 1 { 2 | 3 } { 4 | 5 } 6 ]
L:1/8
Q:1/4=100
M:4/4
K:Ab
V:1 treble nm="Soprano" snm="S"
V:2 treble nm="Alto I" snm="A"
V:3 treble 
V:4 treble-8 nm="Tenor" snm="T"
V:5 treble 
V:6 bass nm="Bass" snm="B"
V:1
"^Magnificat (Short Service)""^William Byrd\n(1543-1623)" F4 G2 A2 | B3 (B A2) G2- | G (C F2) =E4 | %3
w: My soul doth|mag- ni\- * fy|* the * Lord:|
 z2 G4 G2 | A2 B2 c4 | B2 A2 d4 | c2 c3 (F B2) | =A4 z2 _A2 | A2 G3 F (F2- | F2 =E2) F2 F2 | %10
w: and my|sp'rit re- joic-|eth in God|my Sa- vi\- *|our. For|he hath re- gard\-|* * ed the|
 A3 B c2 d2- | d2 c4 B2 | c2 c2 z2 c2- | c2 e2 c2 A2 | B4 c2 d2 | c2 B2 e3 e | d2 c4 B2- | %17
w: low- li- ness of|* his hand-|maid- en. For|* be- hold from|hence- forth all|ge- ne- ra- ti-|ons shall call|
 B2 =A2 B2 B2 | z2 G2 G4 | G2 G2 A4 | G4 G2 G2- | G2 G2 B4 | =A4 z2 d2 | c4 B2 _A2- | A2 G2 A4 | %25
w: * me bless- ed.|For he|that is migh-|ty hath mag\-|* ni- fied|me, and|ho- ly is|* his name.|
 c2 c2 e3 c | d2 B2 c2 c2 | c4 c2 c2 | B2 B2 B2 B2 | B3 B B4 | z2 B4 c2 | G2 =A2 B2 B2- | %32
w: And his mer- cy|is on them that|fear him, through-|out all ge- ne-|ra- ti- ons.|He hath|shew- ed strength with|
 B2 _A2 G4 | G2 A2 B3 c | G2 =A2 B2 G2 | F2 G2 A3 G | F2 E2 =D2 E2- | E2 =D2 E4 | z2 B2 e2 c2 | %39
w: * his arm,|he hath scat- ter-|ed the proud in|the i- ma- gi-|na- ti- on of|* their hearts.|He hath put|
 B3 c =d2 e2 | c2 B2 B4 | z2 B2 =d2 e2 | f3 e =d2 e2- | e=d (c4 =B2) | c4 G2 G2 | G3 A B2 A2- | %46
w: down the migh- ty|from their seat,|and hath ex-|alt- ed the hum\-|* ble and *|meek. He hath|fill- ed the hun\-|
 A2 G2 F3 F | E2 G4 =A2 | B2 c2 =d2 B2 | e3 =d c4 | =B4 z2 _B2- | B2 B2 B4 | G2 =A2 B4 | %53
w: * gry with good|things, and the|rich he hath sent|emp- ty a-|way. He|* re- mem-|b'ring his mer-|
 B2 B2 c3 c | B2 A2 F2 A2- | A (G F2) =E4 | z2 _e4 c2 | c3 c c2 e2- | e2 e2 e2 c2 | c3 c c4 | %60
w: cy hath hol- pen|his ser- vant Is\-|* ra\- * el,|as he|pro- mi- sed to|* our fa- ther|A- bra- ham|
 z2 =d2 e3 e | e2 (=d c2) (B G2) | =A4 z2 B2- | BB B2 B2 c2 | =d2 d2 e2 c2- | c2 B2 B4 | %66
w: and to his|seed for * ev\- *|er. Glo\-|* ry be to the|Fa- ther, and to|* the Son,|
 z2 c2 =d2 B2 | (f2 e4) =d2 | e4 z2 B2- | BB c2 B2 E2 | A2 G3 F G2 | F4 z2 B2 | B2 c2 B2 E2 | %73
w: and to the|Ho\- * ly|Ghost. As|* it was in the|be- gin- ning is|now, and|ev- er shall be,|
 A2 G3 (F G2) | F4 z2[Q:1/4=99] c2 |[Q:1/4=97] c2[Q:1/4=95] (f2[Q:1/4=93] =d2)[Q:1/4=91] B2 | %76
w: world with- out *|end, world|with- out * end.|
[Q:1/4=89] (=d2[Q:1/4=87] c3[Q:1/4=86] F[Q:1/4=84] B2) |[Q:1/4=84] =A8 |] %78
w: A\- * * *|men.|
V:2
 F4 =E2 F2 | G3 G _E4 | C4 C4 | z2 _E4 E2 | F2 G2 A4 |[M:4/4] G2 E2 A4- | A2 A2 F3 F | F4 z2 F2- | %8
w: My soul doth|mag- ni- fy|the Lord:|and my|sp'rit re- joic-|eth in God|* my Sa- vi-|our. For|
 F2 C2 C2 B,2 | C4 C2 C2 | F3 F E2 D (E |[M:4/4] FG) (A3 G F2) | G2 G2 z2 A2- | A2 A2 A2 A2- | %14
w: * he hath re-|gard- ed the|low- li- ness of his|* * hand\- * *|maid- en. For|* be- hold from|
 A (G/F/ G2) A2 F2 | E2 D2 E3 E | A,2 A2 A2 F2 | F6 F2 | z2 E2 E4 | E2 E2 E4 | E4 E2 E2- | %21
w: * hence\- * * forth all|ge- ne- ra- ti-|ons shall call me|bless- ed.|For he|that is migh-|ty hath mag\-|
[M:4/4] E2 E2 F4 | F4 z2 _A2 | A4 F2 E2 | E4 E4 | A2 A2 G3 A | F2 G2 A2 A2 |[M:4/4] G4 F2 F2 | %28
w: * ni- fied|me, and|ho- ly is|his name.|And his mer- cy|is on them that|fear him, through-|
 B,3 C =D2 E2 | F3 F G4 | z2 E4 E2 | E2 E2 =D2 E2- |[M:4/4] E (G F2) =E4 | _E2 F2 G3 A | %34
w: out all ge- ne-|ra- ti- ons.|He hath|shew- ed strength with|* his * arm,|he hath scat- ter-|
 E2 E2 F2 E2 | _D2 B,2 E3 D | C2 C2 B,2 A,2 |[M:4/4] B,4 B,4 | z2 G2 G2 A2 | F2 F2 B3 B | %40
w: ed the proud in|the i- ma- gi-|na- ti- on of|their hearts.|He hath put|down the migh- ty|
 A2 G2 F4 | z2 F2 B2 B2 | A3 A F2 E2 | C4 =D4 | C4 _E2 E2 | E3 F G2 F2- | F2 E2 E2 =D2 | %47
w: from their seat,|and hath ex-|alt- ed the hum-|ble and|meek. He hath|fill- ed the hun\-|* gry with good|
[M:4/4] E2 E4 E2 | F2 F2 F2 G2 | A2 G4 G2 | G4 z2 G2- | G2 G2 F2 G2- | GF (E4 =D2) | E2 G2 A3 A | %54
w: things, and the|rich he hath sent|emp- ty a-|way. He|* re- mem- b'ring|* his mer\- *|cy hath hol- pen|
 G2 F4 E2 | A,2 B,2 C4 | z2 G4 F2 | E3 F E2 G2- | G2 A2 G2 F2 | =E3 F E4 | z2 F2 G3 A | %61
w: his ser- vant|Is- ra- el,|as he|pro- mi- sed to|* our fa- ther|A- bra- ham|and to his|
 GF (F4 =E2) | F4 z2 F2- | FF F2 G2 =A2 | B2 B2 G2 _A2- | A2 G2 F4 | z2 =A2 B4 | F2 B3 (A F2) | %68
w: seed for ev\- *|er. Glo\-|* ry be to the|Fa- ther, and to|* the Son,|and to|the Ho- ly *|
 G4 z2 G2- | GG A2 G2 G2 | F2 =E3 F E2 | F4 z2 G2 | G2 A2 G2 G2 | F2 =E3 (F E2) | F4 z2 F2- | %75
w: Ghost. As|* it was in the|be- gin- ning is|now, and|ev- er shall be,|world with- out *|end, world|
 FG =A2 B4 | F8 | F8 |] %78
w: * with- out end.|A-|men.|
V:3
 C4 C2 C2 | E6 E2 | F2 F2 G4 | z8 | z8 |[M:4/4] x8 | x8 | x8 | x8 | x8 | x8 |[M:4/4] z8 | %12
w: My soul doth|mag- ni-|fy the Lord:||||||||||
 z4 z2 A2- | A2 A2 A2 A2- | A (G/F/ G2) A2 A2 | A2 F2 A2 E2 | A2 A,2 C2 D(F- | FE C2) =D4 | z8 | %19
w: For|* be- hold from|* hence\- * * forth all|ge- ne- ra- ti-|ons shall call me bless\-|* * * ed.||
 z8 | z8 |[M:4/4] x8 | x8 | x8 | x8 | x8 | x8 |[M:4/4] z4 z2 A2 | G3 G FE E2- | E2 =D2 E4 | z8 | %31
w: ||||||||through-|out all ge- ne- ra\-|* ti- ons.||
 z8 |[M:4/4] x8 | x8 | x8 | x8 | x8 |[M:4/4] z8 | z8 | z8 | z8 | z2 =D2 F2 G2 | C2 FB B2 G2 | %43
w: ||||||||||and hath ex-|alt- ed the hum- ble|
 (A2 F2 G4) | =E4 z4 | z8 | z8 |[M:4/4] x8 | x8 | x8 | x8 | x8 | x8 | x8 | x8 | x8 | x8 | x8 | x8 | %59
w: and * *|meek.|||||||||||||||
 x8 | x8 | x8 | x8 | x8 | x8 | x8 | x8 | x8 | x8 | x8 | x8 | x8 | x8 | x8 | x8 | x8 | x8 | x8 |] %78
w: |||||||||||||||||||
V:4
 A4 G2 F2 | B2 G2 c3 (B | A4) G4 | z2 c4 c2 | c2 e2 e4 | e2 c2 f4 | e2 f3 (e d2) | c4 z2 c2- | %8
w: My soul doth|mag- ni- fy the|* Lord:|and my|sp'rit re- joic-|eth in God|my Sa- vi\- *|our. For|
 c2 G2 A2 F2 | G4 =A2 _A2 | c3 c c2 f2 | d2 (e2 f4) | =e2 e2 z2 _e2- | e2 c2 f2 e2 | d4 e2 z2 | %15
w: * he hath re-|gard- ed the|low- li- ness of|his hand\- *|maid- en. For|* be- hold from|hence- forth|
 z2 d2 c2 B2 | f3 f e2 d2 | c2 c2 B2 B2 | z2 B2 B4 | B2 B2 c4 | B4 B2 B2- | B2 B2 d4 | c4 z2 f2 | %23
w: all ge- ne-|ra- ti- ons shall|call me bless- ed.|For he|that is migh-|ty hath mag\-|* ni- fied|me, and|
 e4 d2 c2 | B4 A4 | e2 e2 e3 e | d2 e2 e2 f2 | =e4 f2 f2 | =d2 _e2 f2 g2 | f2 B2 B4 | z2 G4 A2 | %31
w: ho- ly is|his name.|And his mer- cy|is on them that|fear him, through-|out all ge- ne-|ra- ti- ons.|He hath|
 B2 c2 F2 G2- | G2 (AB) c4 | c2 c2 e3 e | B2 c2 =d2 B2 | B2 _d2 c3 B | A3 G F2 E2 | F4 G4 | %38
w: shew- ed strength with|* his * arm,|he hath scat- ter-|ed the proud in|the i- ma- gi-|na- ti- on of|their hearts.|
 z2 B2 B2 e2 | =d3 e f2 g2 | f (e2 =d/c/) d4 | z2 B2 B2 B2 | (c3 B) B2 z2 | c2 F2 B2 G2 | %44
w: He hath put|down the migh- ty|from their * * seat,|and hath ex-|alt\- * ed|the hum- ble and|
 G4 [Gc]2 [Gc]2 | [GB]3 [Gc] [Ge]2 [Ac]2- | [Ac]2 [EB]2 [FB]2 [FB]2 |[M:4/4][K:treble-8] B2 G4 c2 | %48
w: meek. He hath|fill- ed the hun\-|* gry with good|things, and the|
 FF =A2 B2 G2 | E3 (F G4) | G4 z2 e2- | e2 e2 =d4 |[M:4/4][K:treble-8] e2 e2 f4 | g2 e2 e3 e | %54
w: rich he hath sent emp-|ty a\- *|way He|* re- mem-|b'ring his mer-|cy hath hol- pen|
 e2 c4 c2 | F3 F G4 | z2 c3 (B A2) | G3 A G2 c2- |[M:4/4][K:treble-8] c2 c2 B2 A2 | G3 A G4 | %60
w: his ser- vant|Is- ra- el,|as he *|pro- mi- sed to|* our fa- ther|A- bra- ham|
 z2 A2 B3 c | B2 A2 (G2 c2) | c4 z2 =d2- | d=d d2 e2 e2 | f3 =d B2 e2- | e2 e2 =d4 | z2 f2 f2 =d2 | %67
w: and to his|seed for ev\- *|er. Glo\-|* ry be to the|Fa- ther, and to|* the Son,|and to the|
 B4 (c2 B2) | B4 z2 e2- | ee e2 e2 e2 | c2 c3 c c2 | c4 z2 e2 | e2 e2 e2 e2 | c2 c4 c2 | %74
w: Ho- ly *|Ghost. As|* it was in the|be- gin- ning is|now, and|ev- er shall be,|world with- out|
 c4 z2 =A2 | =A2 (c2 B2) B2- | B2 (=A2 B3 F) | F8 |] %78
w: end, world|with- out * end.|* A\- * *|men.|
V:5
 x8 | x8 | x8 | x8 | x8 | x8 | x8 | x8 | x8 | x8 | x8 | x8 | x8 | x8 | x8 | x8 | x8 | x8 | x8 | %19
w: |||||||||||||||||||
 x8 | x8 | x8 | x8 | x8 | x8 | x8 | x8 | x8 | x8 | x8 | x8 | x8 | x8 | x8 | x8 | x8 | x8 | x8 | %38
w: |||||||||||||||||||
 x8 | x8 | x8 | x8 | x8 | x8 | x8 | x8 | x8 |[M:4/4][K:treble-8] G2 B4 e2 | =d2 c2 B2 B2 | %49
w: |||||||||things, and the|rich he hath sent|
 c3 B (c=d e2) | =d4 z4 | z8 |[M:4/4] x8 | x8 | x8 | x8 | x8 | x8 | %58
w: emp- ty a\- * *|way||||||||
[M:4/4][K:treble-8] c2 A2 e2 f2 | c3 A c4 | z2 f2 e3 c | e2 f2 c4 | c4 z2 B2- | BB B2 G2 c2 | %64
w: * our fa- ther|A- bra- ham|and to his|seed for ev-|er. Glo\-|* ry be to the|
 F2 B2 z2 A2 | E (FGE) F4 | z4 z2 f2 | =d2 g2 f3 f | e4 z2 B2- | BB A2 B2 B2 | F2 G3 A G2 | %71
w: Fa- ther, and|to the * * Son,|and|to the Ho- ly|Ghost. As|* it was in the|be- gin- ning is|
 =A4 z2 B2 | B2 _A2 B2 B2 | F2 G3 (A G2) | =A4 z2 c2- | c2 c2 (f2 =d2) | B2 (c2 =d4) | c8 |] %78
w: now, and|ev- er shall be,|world with- out *|end, world|* with- out *|end. A\- *|men.|
V:6
 F,4 C,2 F,2 | E,3 E, C,4 | F,4 C,4 | z2 C,4 C,2 | F,2 E,2 A,4 | E,2 z2 z2 D,2 | A,2 F,2 B,3 B, | %7
w: My soul doth|mag- ni- fy|the Lord:|and my|sp'rit re- joic-|eth in|God my Sa- vi-|
 F,4 z2 F,2- | F,2 =E,2 F,2 D,2 | C,4 F,2 F,2 | F,3 G, A,2 B,2- | B,2 A,2 D4 | C2 C2 z2 A,2- | %13
w: our. For|* he hath re-|gard- ed the|low- li- ness of|* his hand-|maid- en. For|
 A,2 A,2 A,2 C2 | B,4 A,2 D,2 | A,2 B,2 A,2 G,2 | F,4 A,2 B,2 | F,4 B,,2 B,,2 | z2 E,2 E,4 | %19
w: * be- hold from|hence- forth all|ge- ne- ra- ti-|ons shall call|me bless- ed.|For he|
 E,2 E,2 A,,4 | E,4 E,2 E,2- | E,2 E,2 (B,,>C, D,E,) | F,4 z2 D,2 | A,4 D,2 A,,2 | E,4 A,,4 | %25
w: that is migh-|ty hath mag\-|* ni- fied * * *|me, and|ho- ly is|his name.|
 A,2 A,2 C3 A, | B,2 E,2 A,2 F,2 | C4 F,2 F,2 | G,2 E,2 B,2 G,2 | B,3 B, E,4 | z2 E,4 A,,2 | %31
w: And his mer- cy|is on them that|fear him, through-|out all ge- ne-|ra- ti- ons.|He hath|
 E,2 C,2 B,,2 E,2- | E,2 F,2 C,4 | C,2 F,2 E,3 A,, | E,2 C,2 B,,2 E,2 | B,,2 B,,2 A,,2 A,,2 | %36
w: shew- ed strength with|* his arm,|he hath scat- ter-|ed the proud in|the i- ma gi-|
 A,,3 A,, B,,2 C,2 | B,,4 E,4 | z2 E,2 E,2 A,,2 | B,,3 B,, B,,2 E,2 | A,2 E,2 B,4 | %41
w: na- ti- on of|their hearts.|He hath put|down the migh- ty|from their seat,|
 z2 B,2 B,2 G,2 | F,3 G, B,2 C2- | CB, (A,2 G,4) | C,4 C,2 C,2 | E,3 E, E,2 A,,2- | %46
w: and hath ex-|alt- ed the hum\-|* ble and *|meek. He hath|fill- ed the hun\-|
 A,,2 E,2 B,,2 B,,2 | E,2 E,3 (=D, C,2) | B,,2 F,2 B,,2 E,2 | C,3 (=D, E,2) C,2 | G,4 z2 E,2- | %51
w: * gry with good|things, and the *|rich he hath sent|emp- ty * a-|way He|
 E,2 E,2 B,4 | C2 C2 B,4 | E,2 E,2 A,3 A, | E,2 F,4 C,2 | D,3 D, C,4 | z2 C,4 F,2 | %57
w: * re- mem-|b'ring his mer-|cy hath hol- pen|his ser- vant|Is- ra- el,|as he|
 C,3 A,, C,2 C,2- | C,2 A,,2 E,2 F,2 | C,3 A,, C,4 | z2 F,2 E,3 C, | E,2 F,2 C,4 | F,4 z2 B,,2- | %63
w: pro- mi- sed to|* our fa- ther|A- bra- ham|and to his|seed for ev-|er. Glo\-|
 B,,B,, B,,2 E,2 C,2 | B,,2 B,,2 E,2 (A,,>B,, | C,) (A,, E,2) B,,4 | z2 F,2 B,4- | %67
w: * ry be to the|Fa- ther, and to *|* the * Son,|and to|
 B,2 G,2 A,2 B,2 | E,4 z2 E,2- | E,E, A,2 E,2 E,2 | F,2 C,3 F, C,2 | F,4 z2 E,2 | E,2 A,2 E,2 E,2 | %73
w: * the Ho- ly|Ghost. As|* it was in the|be- gin- ning is|now, and|ev- er shall be,|
 F,2 C,4 C,2 | F,4 z2 F,2 | F,2 F,2 B,,4- | B,,2 (F,2 =D,2 B,,2) | F,8 |] %78
w: world with- out|end, world|with- out end.|* A\- * *|men|

